src/.vuepress/theme/assets/sprite/svg/email.svg

<svg viewBox="0 -100 512.00002 512" xmlns="http://www.w3.org/2000/svg"><path d="m494.535156 0h-477.070312c-9.628906 0-17.464844 7.835938-17.464844 17.464844v276.453125c0 9.628906 7.835938 17.460937 17.464844 17.460937h477.070312c9.628906 0 17.464844-7.832031 17.464844-17.460937v-276.453125c0-9.628906-7.835938-17.464844-17.464844-17.464844zm-464.503906 43.027344 143.507812 95.382812-143.507812 124.921875zm225.96875 114.128906-191.265625-127.125h382.53125zm-56.523438-1.511719 46.855469 31.144531c2.9375 1.953126 6.300781 2.929688 9.667969 2.929688 3.363281 0 6.730469-.980469 9.667969-2.929688l46.855469-31.144531 144.402343 125.703125h-401.851562zm138.984376-17.238281 143.507812-95.382812v220.308593zm0 0"/></svg>

<svg viewBox="0 -100 512 512" xmlns="http://www.w3.org/2000/svg"><path d="M494.535 0H17.465C7.835 0 0 7.836 0 17.465v276.453c0 9.629 7.836 17.46 17.465 17.46h477.07c9.63 0 17.465-7.831 17.465-17.46V17.465C512 7.835 504.164 0 494.535 0zM30.031 43.027L173.54 138.41 30.031 263.332zM256 157.157L64.734 30.03h382.532zm-56.523-1.512l46.855 31.144a17.433 17.433 0 009.668 2.93c3.363 0 6.73-.98 9.668-2.93l46.855-31.144 144.403 125.703H55.074zm138.984-17.239l143.508-95.383v220.309zm0 0"/></svg>
